X:1
T:Boys Of Blue Hill
C:Traditionnel, abc file by Bernard Loffet
L:1/8
Q:280
M:2/2
K:C
z6[EC,]G|:[AF,]G[EF,]G[CC,]G[EC,]G|[AF,]G[A/F,/]B/c[d2G,2][cG,]d|[eC,]g[gC,]e[dG,]f[eG,]d|1[cC,]d[eC,]c[AF,]B[cF,]B:|2[c2F,2][A2F,2][G2C,2][cC,]e|:[gC,]e[cC,]e[g2C,2][fG,]e| \
[fF,]e[fF,]g[a2F,2][gF,]f|[eC,]g[gC,]e[dG,]f[eG,]d|[cC,]d[eC,]c[AF,]B[cF,]B|[AF,]G[EF,]G[CC,]G[EC,]G|[AF,]G[A/F,/]B/c[d2G,2][cG,]d|[eC,]g[gC,]e[dG,]f[eG,]d| \
|1[c2F,2][A2F,2][G2C,2][cC,]e:|2[c2F,2][A2F,2][G4C,4]| \
Z:Created with TablEdit http://www.tabledit.com/
